src/assets/icons/cc.svg

<svg fill="none" height="148" viewBox="0 0 237 148" width="237" xmlns="http://www.w3.org/2000/svg" xmlns:xlink="http://www.w3.org/1999/xlink"><mask id="a" height="148" maskUnits="userSpaceOnUse" width="237" x="0" y="0"><rect fill="#f5f5f5" height="146.389" rx="10" width="236.694" y=".908447"/></mask><g mask="url(#a)"><path d="m-.950562 10.9084c0-5.5228 4.477152-9.999953 10.000002-9.999953h216.69356c5.523 0 10 4.477153 10 9.999953v126.3896c0 5.522-4.477 10-10 10h-216.69356c-5.52284 0-10.000002-4.478-10.000002-10z" fill="#f5f5f5"/><path d="m94.8677 47.6768c-1.3593 0-2.4715 1.1121-2.4715 2.4715v46.9585c0 1.3594 1.1122 2.4715 2.4715 2.4715h46.9583c1.36 0 2.472-1.1121 2.472-2.4715v-46.9585c0-1.3594-1.112-2.4715-2.472-2.4715zm28.4223 12.3575c7.501 0 13.593 6.0922 13.593 13.5932 0 7.5011-6.092 13.5933-13.593 13.5933h-6.179-5.561c-6.475 0-11.7392-5.2643-11.7392-11.7396 0-6.4754 5.2642-11.7397 11.7392-11.7397.754 0 1.482.0741 2.199.21 2.459-2.4221 5.821-3.9172 9.541-3.9172zm0 2.4715c-2.546 0-4.979.8659-6.944 2.4353.803.4078 1.555.9023 2.247 1.4336 1.384-.9144 3.004-1.3974 4.697-1.3974 4.77 0 8.65 3.8802 8.65 8.6502s-3.88 8.6503-8.65 8.6503c-3.843 0-6.499-2.9038-9.316-5.9808-.717-.7909-1.434-1.5708-2.163-2.3122-.482-.482-1.275-.482-1.757 0-.482.4819-.482 1.2751 0 1.757.717.7044 1.41 1.4691 2.102 2.2229l1.296 1.4096c1.545 1.6435 3.177 3.1866 5.105 4.1875 1.396.7291 2.954 1.1875 4.733 1.1875 6.129 0 11.122-4.9924 11.122-11.1218 0-6.1293-4.993-11.1217-11.122-11.1217zm-11.74 3.7072c-5.116 0-9.268 4.1522-9.268 9.2682s4.152 9.2681 9.268 9.2681c1.162 0 2.3-.2098 3.363-.6299-.791-.6179-1.522-1.2853-2.19-1.9526-.383.0741-.777.111-1.173.111-3.744 0-6.796-3.0523-6.796-6.7966 0-3.7444 3.052-6.7967 6.796-6.7967 2.818 0 5.191 2.4827 7.292 4.6824.383.3954.74.7808 1.098 1.1392.482.4819 1.275.4819 1.757 0 .482-.482.482-1.2752 0-1.7571-.346-.346-.706-.7154-1.064-1.0861-.989-1.0504-2.088-2.1883-3.324-3.1521-.568-.4573-1.163-.8632-1.805-1.2092-1.199-.6673-2.508-1.0886-3.954-1.0886z" fill="#000"/></g></svg>

<svg width="237" height="148" viewBox="0 0 237 148" fill="none" xmlns="http://www.w3.org/2000/svg">
<mask id="mask0_114_197" style="mask-type:alpha" maskUnits="userSpaceOnUse" x="0" y="0" width="237" height="148">
<rect y="0.908447" width="236.694" height="146.389" rx="10" fill="#F5F5F5"/>
</mask>
<g mask="url(#mask0_114_197)">
<path d="M-0.950562 10.9084C-0.950562 5.3856 3.52659 0.908447 9.04944 0.908447H225.743C231.266 0.908447 235.743 5.3856 235.743 10.9084V137.298C235.743 142.82 231.266 147.298 225.743 147.298H9.04944C3.5266 147.298 -0.950562 142.82 -0.950562 137.298V10.9084Z" fill="#F5F5F5"/>
<path d="M94.8677 47.6768C93.5084 47.6768 92.3962 48.7889 92.3962 50.1483V97.1068C92.3962 98.4662 93.5084 99.5783 94.8677 99.5783H141.826C143.186 99.5783 144.298 98.4662 144.298 97.1068V50.1483C144.298 48.7889 143.186 47.6768 141.826 47.6768H94.8677ZM123.29 60.0343C130.791 60.0343 136.883 66.1265 136.883 73.6275C136.883 81.1286 130.791 87.2208 123.29 87.2208H117.111H111.55C105.075 87.2208 99.8108 81.9565 99.8108 75.4812C99.8108 69.0058 105.075 63.7415 111.55 63.7415C112.304 63.7415 113.032 63.8156 113.749 63.9515C116.208 61.5294 119.57 60.0343 123.29 60.0343ZM123.29 62.5058C120.744 62.5058 118.311 63.3717 116.346 64.9411C117.149 65.3489 117.901 65.8434 118.593 66.3747C119.977 65.4603 121.597 64.9773 123.29 64.9773C128.06 64.9773 131.94 68.8575 131.94 73.6275C131.94 78.3975 128.06 82.2778 123.29 82.2778C119.447 82.2778 116.791 79.374 113.974 76.297C113.257 75.5061 112.54 74.7262 111.811 73.9848C111.329 73.5028 110.536 73.5028 110.054 73.9848C109.572 74.4667 109.572 75.2599 110.054 75.7418C110.771 76.4462 111.464 77.2109 112.156 77.9647L113.452 79.3743C114.997 81.0178 116.629 82.5609 118.557 83.5618C119.953 84.2909 121.511 84.7493 123.29 84.7493C129.419 84.7493 134.412 79.7569 134.412 73.6275C134.412 67.4982 129.419 62.5058 123.29 62.5058ZM111.55 66.213C106.434 66.213 102.282 70.3652 102.282 75.4812C102.282 80.5972 106.434 84.7493 111.55 84.7493C112.712 84.7493 113.85 84.5395 114.913 84.1194C114.122 83.5015 113.391 82.8341 112.723 82.1668C112.34 82.2409 111.946 82.2778 111.55 82.2778C107.806 82.2778 104.754 79.2255 104.754 75.4812C104.754 71.7368 107.806 68.6845 111.55 68.6845C114.368 68.6845 116.741 71.1672 118.842 73.3669C119.225 73.7623 119.582 74.1477 119.94 74.5061C120.422 74.988 121.215 74.988 121.697 74.5061C122.179 74.0241 122.179 73.2309 121.697 72.749C121.351 72.403 120.991 72.0336 120.633 71.6629C119.644 70.6125 118.545 69.4746 117.309 68.5108C116.741 68.0535 116.146 67.6476 115.504 67.3016C114.305 66.6343 112.996 66.213 111.55 66.213Z" fill="black"/>
</g>
</svg>
